src/components/Icon/assets/chat-progress-filled.svg

<svg width="24" height="24" viewBox="0 0 24 24" fill="none" xmlns="http://www.w3.org/2000/svg">
<path fill-rule="evenodd" clip-rule="evenodd" d="M20.8223 16.683C20.5763 17.144 20.5573 17.694 20.7233 18.19L21.3613 20.105C21.6223 20.886 20.8793 21.63 20.0973 21.37C19.6395 21.2172 19.1583 21.0569 18.7279 20.9135L18.1743 20.729C17.6813 20.565 17.1373 20.584 16.6783 20.829C14.7293 21.868 12.4033 22.29 9.9473 21.796C5.9463 20.991 2.7823 17.703 2.1293 13.675C1.0233 6.848 6.8373 1.033 13.6643 2.137C17.6933 2.789 20.9823 5.954 21.7873 9.954C22.2813 12.409 21.8613 14.734 20.8223 16.683ZM6.20628 11.9928C6.20628 12.7374 6.81476 13.3459 7.55934 13.3459C8.30392 13.3459 8.91239 12.7374 8.91239 11.9928C8.91239 11.2493 8.30392 10.6408 7.55934 10.6408C6.81476 10.6408 6.20628 11.2493 6.20628 11.9928ZM12.0399 13.3459C11.2963 13.3459 10.6869 12.7374 10.6869 11.9928C10.6869 11.2493 11.2963 10.6408 12.0399 10.6408C12.7845 10.6408 13.393 11.2493 13.393 11.9928C13.393 12.7374 12.7845 13.3459 12.0399 13.3459ZM15.1679 11.9928C15.1679 12.7374 15.7763 13.3459 16.5209 13.3459C17.2645 13.3459 17.874 12.7374 17.874 11.9928C17.874 11.2493 17.2645 10.6408 16.5209 10.6408C15.7763 10.6408 15.1679 11.2493 15.1679 11.9928Z" fill="#65676A"/>
</svg>

<svg xmlns="http://www.w3.org/2000/svg" width="24" height="24" viewBox="0 0 24 24">
    <path fill="#65676A" fill-rule="evenodd" d="M2.13 13.675C1.022 6.848 6.836 1.033 13.663 2.137c4.03.652 7.318 3.817 8.123 7.817.494 2.455.074 4.78-.965 6.729-.246.461-.265 1.011-.099 1.507l.638 1.915c.261.781-.482 1.525-1.264 1.265l-1.923-.641c-.493-.164-1.037-.145-1.496.1-1.949 1.039-4.275 1.461-6.73.967-4.002-.805-7.166-4.093-7.819-8.121zm5.43-3.034c-.745 0-1.354.608-1.354 1.352 0 .744.609 1.353 1.353 1.353.745 0 1.353-.609 1.353-1.353S8.304 10.64 7.56 10.64zm4.48 0c-.744 0-1.353.608-1.353 1.352 0 .744.61 1.353 1.353 1.353.745 0 1.353-.609 1.353-1.353s-.608-1.352-1.353-1.352zm4.48 0c-.744 0-1.352.608-1.352 1.352 0 .744.608 1.353 1.353 1.353.743 0 1.353-.609 1.353-1.353s-.61-1.352-1.353-1.352z"/>
</svg>
